X:1
T:Title
%%score { ( 1 3 ) | 2 }
L:1/8
Q:1/4=100
M:4/4
K:Ab
V:1 treble nm="Grand Piano"
V:3 treble 
V:2 bass 
V:1
 c2 B2 A3 [=EG] | F2 A2 F E3 | [A,EA][A,EA][B,EG][CEA] c2 B2 | B6 z2 | c2 B2 A3 [=EG] | %5
w: D.~B.~Towner * * *|||||
 F2 A2 F E3 | [Ec]2 [Ae]2 [DGB]3 [CEA] | [CEA]6 z2 | z4 [Fd]4 | z4 [Ec]4 | %10
w: |||||
 [=DB]3 [EB] [F=d]2 [AB]2 | [Ge]6 z2 | c2 B2 A3 [=EG] | F2 A2 F E3 | [Ec]2 [Ae]2 [DGB]3 [CEA] | %15
w: |||||
 [CEA]6 z2 |] %16
w: |
V:2
 [A,E]2 [E,G,D]2 [F,A,C]3 [C,B,] | [D,A,]2 [F,A,D]2 [A,D] [A,C]3 | C,C,B,,A,, [F,A,=D]2 [F,A,D]2 | %3
 [E,G,E]6 z2 | [A,E]2 [E,G,D]2 [F,A,C]3 [C,B,] | [D,A,]2 [F,A,D]2 [A,D] [A,C]3 | %6
 [A,,A,]2 [C,A,]2 E,3 A,, | A,,6 z2 | F2 D2[K:bass] [D,A,]D, D,2 | E2 C2 [A,,A,]A,, A,,2 | %10
 [B,,F,]3 [B,,G,] [B,,A,]2 [F,B,]2 | [E,B,]6 z2 | [A,E]2 [E,G,D]2 [F,A,C]3 [C,B,] | %13
 [D,A,]2 [F,A,D]2 [A,D] [A,C]3 | [A,,A,]2 [C,A,]2 E,3 A,, | A,,6 z2 |] %16
V:3
 x8 | x8 | x8 | x8 | x8 | x8 | x8 | x8 | d2 F2 z A, A,2 | c2 E2 z A, A,2 | x8 | x8 | x8 | x8 | x8 | %15
 x8 |] %16

